images/icons/basket.svg

<svg width="27" height="28" viewBox="0 0 27 28" fill="none" xmlns="http://www.w3.org/2000/svg">
<path fill-rule="evenodd" clip-rule="evenodd" d="M5.022 3.20002H26.325C26.6978 3.20002 27 3.50223 27 3.87502V4.55002C26.9902 5.67036 26.6877 6.76868 26.1225 7.73602L22.95 13.3115C22.2635 14.5454 20.9732 15.3216 19.5615 15.35H11.151C10.8592 15.3437 10.5692 15.303 10.287 15.2285L8.937 18.05H23.625C23.9978 18.05 24.3 18.3522 24.3 18.725V20.075C24.3 20.4478 23.9978 20.75 23.625 20.75H6.75C6.38055 20.7586 6.03504 20.5678 5.8455 20.2505L5.5485 19.7375C5.39241 19.4371 5.39241 19.0795 5.5485 18.779L8.0595 13.784C7.92237 13.6392 7.80025 13.4809 7.695 13.3115L1.917 3.20002H0.675C0.302208 3.20002 0 2.89781 0 2.52502V1.17502C0 0.802229 0.302208 0.500021 0.675 0.500021H1.917C2.88545 0.496177 3.78178 1.01131 4.266 1.85002L5.022 3.20002ZM8.1 22.1C6.60883 22.1 5.4 23.3089 5.4 24.8C5.4 26.2912 6.60883 27.5 8.1 27.5C9.59117 27.5 10.8 26.2912 10.8 24.8C10.8 23.3089 9.59117 22.1 8.1 22.1ZM24.3 24.8C24.3 26.2912 23.0912 27.5 21.6 27.5C20.1088 27.5 18.9 26.2912 18.9 24.8C18.9 23.3089 20.1088 22.1 21.6 22.1C23.0912 22.1 24.3 23.3089 24.3 24.8Z" fill="#07484A"/>
</svg>

<svg width="27" height="28" fill="none" xmlns="http://www.w3.org/2000/svg"><path fill-rule="evenodd" clip-rule="evenodd" d="M5.022 3.2h21.303c.373 0 .675.302.675.675v.675a6.427 6.427 0 0 1-.878 3.186l-3.172 5.576a3.969 3.969 0 0 1-3.389 2.038h-8.41a3.697 3.697 0 0 1-.864-.121l-1.35 2.821h14.688c.373 0 .675.302.675.675v1.35a.675.675 0 0 1-.675.675H6.75a1.026 1.026 0 0 1-.904-.5l-.298-.512a1.04 1.04 0 0 1 0-.959l2.511-4.995a2.955 2.955 0 0 1-.364-.473L1.917 3.2H.675A.675.675 0 0 1 0 2.525v-1.35C0 .802.302.5.675.5h1.242a2.7 2.7 0 0 1 2.349 1.35l.756 1.35ZM8.1 22.1a2.7 2.7 0 1 0 0 5.4 2.7 2.7 0 0 0 0-5.4Zm16.2 2.7a2.7 2.7 0 1 1-5.4 0 2.7 2.7 0 0 1 5.4 0Z" fill="#07484A"/></svg>
